X:27
T: Das Schwabentoechterlein
N: Q2073E
O: Nordeuropa, Daenemark
N: Daenische Fassung der Ballade, mit "Die wiedergefundene Schwester"
N: vermischt.
R: Ballade, Weglaufen, Schwangerschaft, Rueckkehr
M: 2/4
L: 1/16
K: D
 | A2GGA2_BB | =c2d2A2
G2 | A2G2AA_BB | d4A2
A2 | =F2FGA2G2 | D2E=FD2
D2 | E2=FFD2EE | =F4A2
A2 | =F4A2A2 | =F2EED4

@@@ Tune index: 1082
